X:154
T:Arthur's Pass
M:3/4
L:1/8
C:Becky Dorsey
K:G
D GA|"G"B3 A GB|"D"AG F2 D2|"C"E2 ED CE|"G"ED D2 C2|
B,D GB dB|"C"c2 cB AG|"D"FG AG FE|D3D GA|
"G"B3 A GB|"D"AG F2D2|"C"E2 ED CE|"G"ED D2 C2|
B,D GB dB|"C"cB AG FE|"D"D3  F AF|"G"G3:|
A Bd|"G"g2g f eg|"D"fe d2B2|"C"c2 ce dc|"G"cB BA GF
"Em"E2 EF GF|E4E2|"D"F2 FG AG|F3 E DC|
"G"B,D GD B,D|"C"CE AG FE|"D"DF Ac BA|"G"BA GF ED|
"C"C3 D EG|"D"FE DF AF|"G"G2 GF GA|G3:|
